X: 20
T:John of Ui Stubllia
R:polka
H:Also played "Hage Pell a Dancersion of and in Cherpley aldor
Z:id:hn-polka-70
M:2/4
L:1/8
K:D
D2 AG|FG AB|AB cB|AG FD|DE/F/ GE|
A/B/A/G/ FE|DE DF|Ad dB|A2
====== T = 0.7, seed = 2 ======
<start>
